X: 10623
M: C|
L: 1/8
K: Eb
u((3Bcd) |\
(e>d)e>f (g>f)e>d | (c>B)c>d (e>d)c>B | (A>G)A>B (c>B)A>G | (3FGF (3EDC B,2 ((3Bcd) |
(e>d)e>f (g>f)e>d | (c>B)c>d (e>B)A>F | E2 (3eBG B,2 (3AFD | [E2G,2][G2B,2][E2G,2] :|
|: u(G>A) |\


